!!!!SEGMENT: pl-wn--sd-xvi-o-243_hey-stawicki-michal--kancjonal-zamoyskich-rozwazenie-zywota-krzescianskiemu-czlowieku.krn
!!!cenid: 15xx:801
!!!COM: Hey-Stawicki, Michał
!!!COM-rismID: pe30013356
!!!CDT: <1544->1559
!!!CNT:
!!!OTL: Kancjonał Zamoyskich
!!!PDT: 1559
!!!AGN:
!!!SMS-siglum: PL-Wn
!!!SMS-shelfmark: SD XVI.O.243
!!!SMS-shelfwork: W
!!!SMS-variant:
!!!SMS-altvar:
!!!NIFC-rismSourceID: 990029344
!!!NIFC-rismChildID: 990029344
!!!NIFC-islandoraID: none
!!!URL-pdf-islandora:
!!!URL-scan: https://polona2.pl/item/rozwazenie-zywota-krzescianskiemu-czlowieku-aby-o-sobie-wiecey-nierozumial-niz,MTE3MDcyMA/3 @EN{Scan on Polona} @PL{Skany w portalu Polona}
!!!IIIF: https://polona2.pl/iiif/item/MTE3MDcyMA/manifest.json
!!!ONB-nifc: UWAGA: proszę zapisywać tylko teksty występujące bezpośrednio pod nutami
!!!AIN: 1 alto 1 bass 1 soprn 1 tenor
!!!key: F:ion
**kern	**text	**mod-text	**text	**mod-text	**kern	**text	**mod-text	**text	**mod-text	**kern	**text	**mod-text	**text	**mod-text	**kern	**text	**mod-text	**text	**mod-text
*part4	*part4	*part4	*part4	*part4	*part3	*part3	*part4	*part3	*part4	*part2	*part2	*part4	*part2	*part4	*part1	*part1	*part4	*part1	*part4
*staff4	*staff4	*staff4	*staff4	*staff4	*staff3	*staff3	*staff4	*staff3	*staff4	*staff2	*staff2	*staff4	*staff2	*staff4	*staff1	*staff1	*staff4	*staff1	*staff4
*>[A,A,B]	*	*	*	*	*>[A,A,B]	*	*	*	*	*>[A,A,B]	*	*	*	*	*>[A,A,B]	*	*	*	*
*>A	*	*	*	*	*>A	*	*	*	*	*>A	*	*	*	*	*>A	*	*	*	*
*I"Baſſus.	*	*	*	*	*I"Tenor.	*	*	*	*	*I"Altus.	*	*	*	*	*I"Diſcantus.	*	*	*	*
*I'B	*	*	*	*	*I'T	*	*	*	*	*I'A	*	*	*	*	*I'S	*	*	*	*
*Ibass	*	*	*	*	*Itenor	*	*	*	*	*Ialto	*	*	*	*	*Isoprn	*	*	*	*
*ICvox	*	*	*	*	*ICvox	*	*	*	*	*ICvox	*	*	*	*	*ICvox	*	*	*	*
*mI"Basso	*	*	*	*	*mI"Tenore	*	*	*	*	*mI"Alto	*	*	*	*	*mI"Soprano	*	*	*	*
*clefF4	*	*	*	*	*clefC4	*	*	*	*	*clefC3	*	*	*	*	*clefC1	*	*	*	*
*	*	*	*	*	*mclefGv2	*	*	*	*	*mclefG2	*	*	*	*	*mclefG2	*	*	*	*
*k[b-]	*	*	*	*	*k[b-]	*	*	*	*	*k[b-]	*	*	*	*	*k[b-]	*	*	*	*
*F:ion	*	*	*	*	*F:ion	*	*	*	*	*F:ion	*	*	*	*	*F:ion	*	*	*	*
*M2/1	*	*	*	*	*M2/1	*	*	*	*	*M2/1	*	*	*	*	*M2/1	*	*	*	*
*met(C|)	*	*	*	*	*met(C|)	*	*	*	*	*met(C|)	*	*	*	*	*met(C|)	*	*	*	*
*mmet(c|)	*	*	*	*	*mmet(c|)	*	*	*	*	*mmet(c|)	*	*	*	*	*mmet(c|)	*	*	*	*
=1-	=1-	=1-	=1-	=1-	=1-	=1-	=1-	=1-	=1-	=1-	=1-	=1-	=1-	=1-	=1-	=1-	=1-	=1-	=1-
*xywh-#8:2796,1566,2063,890	*	*	*	*	*xywh-#7:570,474,2078,940	*	*	*	*	*xywh-#7:2835,2324,1969,963	*	*	*	*	*xywh-#6:576,559,2116,949	*	*	*	*
1F	Coſʒ	Cóż	Prʒy-	Przy-	1F	Ceż	Cóż	Prʒy-	Przy-	1c	Coż	Cóż	Prʒy-	Przy-	1f	Coż	Cóż	Prʒy-	Przy-
2F\	wżdam	wżdam	-ia-	-ją-	2A/	.	wżdam	-ią-	-ją-	2c/	wżdam	wżdam	-ią-	-ją-	2f/	wʒdam	wżdam	-ią-	-ją-
2F\	cʒy-	czy-	-łes	-łeś	2A/	wżdam	czy-	-łes	-łeś	2c/	cʒy-	czy-	-łes	-łeś	2f/	cʒy-	czy-	-łeś	-łeś
=2-	=2-	=2-	=2-	=2-	=2-	=2-	=2-	=2-	=2-	=2-	=2-	=2-	=2-	=2-	=2-	=2-	=2-	=2-	=2-
1BB-	-niſʒ	-nisz	myſl	myśl	2F/	cʒy-	-nisz	myſl	myśl	1B-	-niſʒ	-nisz	myſl	myśl	1d	-niſʒ	-nisz	miſl	myśl
.	.	.	.	.	2F/	-niſʒ	mój	wy-	wy-	.	.	.	.	.	.	.	.	.	.
2r	.	.	.	.	2B-/	moi	mi-	-ſo-	-so-	1d	moi	mój	wy-	wy-	2r	.	.	.	.
2BB-/	moi	mój	wy-	wy-	2B-/	mi-	-ły	-kie	-kie	.	.	.	.	.	2f/	moi	mój	wy-	wy-
=3-	=3-	=3-	=3-	=3-	=3-	=3-	=3-	=3-	=3-	=3-	=3-	=3-	=3-	=3-	=3-	=3-	=3-	=3-	=3-
2D/	mi-	mi-	-ſo-	-so-	2A/	-ły	czło-	.	mnie-	2d/	mi-	mi-	-ſo-	-so-	2f/	mi-	mi-	-ſo-	-so-
2D/	-ły	-ły	-kie	-kie	2F/	cʒło-	.	mnie-	.	2d/	-ły	-ły	-kie	-kie	2f/	-ły	-ły	-kie	-kie
2C/	cʒlo-	czło-	mnie-	mnie-	1c	-wie-	-wie-	-ma-	-ma-	2e\	cʒło-	czło-	mnie-	mnie-	2g/	cʒło-	czło-	mnie-	mnie-
2C/	-wie-	-wie-	-má-	-ma-	.	.	.	.	.	2e\	-wie-	-wie-	-má-	-ma-	2g/	-wie-	-wie-	-ma-	-ma-
*custos:F	*	*	*	*	*	*	*	*	*	*	*	*	*	*	*	*	*	*	*
!LO:LB:g=original	!	!	!	!	!	!	!	!	!	!	!	!	!	!	!	!	!	!	!
=4-	=4-	=4-	=4-	=4-	=4-	=4-	=4-	=4-	=4-	=4-	=4-	=4-	=4-	=4-	=4-	=4-	=4-	=4-	=4-
*xywh-#8:2778,2427,2035,691	*	*	*	*	*	*	*	*	*	*	*	*	*	*	*	*	*	*	*
2.F\	-cʒe/	-cze	-nie/	-nie	1A	-cʒe	-cze	-nie	-nie	2c/	-cʒe.	-cze	-nie/	-nie	2a/	-cʒ[e].	-cze	-nie/	-nie
.	.	.	.	.	.	.	.	.	.	4d/	Iż	.	Jaw-	.	2cc\	Iż	Iż	Jaw-	Ja-
4E/	.	.	.	.	.	.	.	.	.	4e\	.	.	.	.	.	.	.	.	.
*	*	*	*	*	*custos:F	*	*	*	*	*custos:f	*	*	*	*	*	*	*	*	*
*	*	*	*	*	*xywh-#7:574,1372,2082,633	*	*	*	*	*xywh-#8:651,515,2018,691	*	*	*	*	*	*	*	*	*
!	!	!	!	!	!LO:LB:g=original	!	!	!	!	!LO:PB:g=original	!	!	!	!	!	!	!	!	!
1D	Iż	Iż	Ja-	Ja-	2r	.	.	.	.	1f	nie	Iż	-nie	Ja-	2cc\	ſie	się	-nie	-wnie
.	.	.	.	.	2F/	Iż	Iż	Já-	Ja-	.	.	.	.	.	2b-\	nie	nie	ſam	sam
*	*	*	*	*	*	*	*	*	*	*	*	*	*	*	*custos:cc	*	*	*	*
!	!	!	!	!	!	!	!	!	!	!	!	!	!	!	!LO:LB:g=original	!	!	!	!
=5-	=5-	=5-	=5-	=5-	=5-	=5-	=5-	=5-	=5-	=5-	=5-	=5-	=5-	=5-	=5-	=5-	=5-	=5-	=5-
*	*	*	*	*	*	*	*	*	*	*	*	*	*	*	*xywh-#6:576,1471,2111,623	*	*	*	*
1C	ſie	się	-wnie	-wnie	2G/	ſie	się	-wnie	-wnie	2e\	o-	się	ſam	-wnie	2.cc\	o-	o-	o	o
.	.	.	.	.	2A/	nie	nie	ſam	sam	2c/	-ba-	nie	o	sam	.	.	.	.	.
!	!	!	!	!	!	!	!	!	!	!	!	!	!	!	!LO:SIC:s=8b-L	!	!	!	!
.	.	.	.	.	.	.	.	.	.	.	.	.	.	.	8b-\	-ba-	-ba-	ſo-	so-
!	!	!	!	!	!	!	!	!	!	!	!	!	!	!	!LO:SIC:s=8aJ	!	!	!	!
.	.	.	.	.	.	.	.	.	.	.	.	.	.	.	8a\	.	.	.	.
2r	.	.	.	.	2B-/	o-	o-	o	o	2d/	-cʒyſʒ/	o-	ſo-	o	1g	-cʒyſʒ.	-czysz	-bie.	-bie
2C/	nie-	nie	ſam	sam	2c\	-ba-	-ba-	ſo-	so-	2e\	coć	-ba-	-bie:	so-	.	.	.	.	.
=6-	=6-	=6-	=6-	=6-	=6-	=6-	=6-	=6-	=6-	=6-	=6-	=6-	=6-	=6-	=6-	=6-	=6-	=6-	=6-
2.D/	-o-	o-	o	o	1A	-cʒyſʒ	-czysz	-bie	-bie	2f\	pan	-czysz	cho-	-bie	1r	.	.	.	.
.	.	.	.	.	.	.	.	.	.	4e\	Bog	.	-ćias	cho-	.	.	.	.	.
4E/	.	.	.	.	.	.	.	.	.	4d\	.	.	wie-	.	.	.	.	.	.
2F\	-ba-	-ba-	ſo-	so-	2A/	coć	coć	cho-	cho-	2c/	.	coć	-dʒiał	-ciaż	2r	.	.	.	.
2D/	-cʒyſʒ/	-czysz	-bie/	-bie	2A/	Pan	pan	-ćias	-ciaż	1d\	ʒá	pan	żes	wie-	2f/	coć	coć	Cho-	cho-
=7-	=7-	=7-	=7-	=7-	=7-	=7-	=7-	=7-	=7-	=7-	=7-	=7-	=7-	=7-	=7-	=7-	=7-	=7-	=7-
2G\	Coc	coć	cho-	cho-	2B-/	Bog	Bóg	wie-	wie-	.	.	.	.	.	2g/	Pan	pan	-ćias	-ciaż
*custos:F	*	*	*	*	*	*	*	*	*	*	*	*	*	*	*	*	*	*	*
*xywh-#9:647,457,1984,515	*	*	*	*	*	*	*	*	*	*	*	*	*	*	*	*	*	*	*
!LO:LB:g=original	!	!	!	!	!	!	!	!	!	!	!	!	!	!	!	!	!	!	!
2F\	pan	pan	-ćias	-ciaż	2c\	ʒá	za	-dʒiał	-dział	1f	twe	Bóg	na-	-dział	2a/	Bog	.	wie-	wie-
4BB-/	Bog	Bóg	wie-	wie-	1d	twe	twe	ʒeś	żeś	.	.	.	.	.	2b-\	ʒá	Bóg	-dʒiał	-dział
4C/	.	.	.	.	.	.	.	.	.	.	.	.	.	.	.	.	.	.	.
4D/	.	.	.	-dział	.	.	.	.	.	2f\	poſ-	za	-ni-	żeś	2b-\	twe	za	ǯes	żeś
4E/	.	.	.	.	.	.	.	.	.	.	.	.	.	.	.	.	.	.	.
=8-	=8-	=8-	=8-	=8-	=8-	=8-	=8-	=8-	=8-	=8-	=8-	=8-	=8-	=8-	=8-	=8-	=8-	=8-	=8-
2F\	.	.	.	żeś	2.c\	poſ-	pos-	na-	na-	2f\	-tęp-	twe	-ſʒe	na-	2a/	poſ-	twe	na-	na-
*	*	*	*	*	*	*	*	*	*	*custos:e	*	*	*	*	*	*	*	*	*
*	*	*	*	*	*	*	*	*	*	*xywh-#8:623,1162,2029,640	*	*	*	*	*	*	*	*	*
!	!	!	!	!	!	!	!	!	!	!LO:LB:g=original	!	!	!	!	!	!	!	!	!
2C/	ʒa	za	-dʒiał	na-	.	.	.	.	.	2e\	-ki	pos-	ie-	-niż-	2g/	-tęp-	pos-	-niſſ-	-niż-
*	*	*	*	*	*custos:B	*	*	*	*	*	*	*	*	*	*	*	*	*	*
*	*	*	*	*	*xywh-#7:558,1969,2114,625	*	*	*	*	*	*	*	*	*	*	*	*	*	*
!	!	!	!	!	!LO:LB:g=original	!	!	!	!	!	!	!	!	!	!	!	!	!	!
.	.	.	.	.	4B-/	.	-tę-	.	-niż-	.	.	.	.	.	.	.	.	.	.
2D/	twe	twe	żeś	-niż-	2A/	-tęp-	-pki	-niż-	-sze	1d	ʒłe	-tę-	-go	-sze	2f/	-ki	-tę-	-ſʒe	-sze
*	*	*	*	*	*	*	*	*	*	*	*	*	*	*	*custos:g	*	*	*	*
*	*	*	*	*	*	*	*	*	*	*	*	*	*	*	*xywh-#6:596,2050,2125,642	*	*	*	*
!	!	!	!	!	!	!	!	!	!	!	!	!	!	!	!LO:LB:g=original	!	!	!	!
2GG/	po	po[s-	na-	-sze	2.B-/	-ki	złe	-ſʒe	Je-	.	.	.	.	.	2g/	ʒłe	.	ie-	Je-
=9-	=9-	=9-	=9-	=9-	=9-	=9-	=9-	=9-	=9-	=9-	=9-	=9-	=9-	=9-	=9-	=9-	=9-	=9-	=9-
!LO:T:dash	!	!	!	!	!	!	!	!	!	!	!	!	!	!	!	!	!	!	!
!LO:MO:mod=[2D	!	!	!	!	!	!	!	!	!	!	!	!	!	!	!	!	!	!	!
1D	.	-tę-	-ni-	[Je	.	.	.	.	.	2d/	rʒe-	-pki	ſtwo-	Je	2g/	rʒe-	-pki	-go	-go
.	.	.	.	.	4A/	.	.	ie-	.	.	.	.	.	.	.	.	.	.	.
!LO:MO:null:mod=2D]	!	!	!	!	!	!	!	!	!	!	!	!	!	!	!	!	!	!	!
.	.	-pki	.	-go	4G/	ʒłe	.	-go	-go	2B-/	.	złe	-rʒe-	-go	1f	.	złe	ſtwo-	stwo-
.	.	.	.	.	4F/	.	.	ſtwo-	.	.	.	.	.	.	.	.	.	.	.
!LO:T:dash	!	!	!	!	!LO:T:dash	!	!	!	!	!LO:T:dash	!	!	!	!	!	!	!	!	!
!LO:MO:mod=[2C	!	!	!	!	!LO:MO:mod=[2G	!	!	!	!	!LO:MO:mod=[2c	!	!	!	!	!	!	!	!	!
1C	.	złe	-ſʒe	stwo-	1G	rʒe-	rze-	-rʒe-	stwo-	1c	-cʒe.	rze-	-nie.	stwo-	.	.	.	.	.
!LO:MO:null:mod=2C]	!	!	!	!	!LO:MO:null:mod=2G]	!	!	!	!	!LO:MO:null:mod=2c]	!	!	!	!	!	!	!	!	!
.	.	rze-	.	-rze-	.	.	.	.	-rze-	.	.	.	.	-rze-	2e/	.	rze-	-rʒe-	-rze-
=10-	=10-	=10-	=10-	=10-	=10-	=10-	=10-	=10-	=10-	=10-	=10-	=10-	=10-	=10-	=10-	=10-	=10-	=10-	=10-
!	!	!	!	!	!	!	!	!	!	!LO:MO:mod=2c@	!	!	!	!	!LO:TX:b:t=Repeticio.:mod=	!	!	!	!
2FF/	.	-cze.]	.	-nie.]	2F\	-cʒe.	-cze.	-nie.	-nie.	2r	.	-cze.	.	-nie.	2f/	-cʒe.	-cze.	-nie.	-nie.
*custos:F	*	*	*	*	*	*	*	*	*	*	*	*	*	*	*	*	*	*	*
!LO:LB:g=original	!	!	!	!	!	!	!	!	!	!	!	!	!	!	!	!	!	!	!
=:|!	=:|!	=:|!	=:|!	=:|!	=:|!	=:|!	=:|!	=:|!	=:|!	=:|!	=:|!	=:|!	=:|!	=:|!	=:|!	=:|!	=:|!	=:|!	=:|!
*>B	*	*	*	*	*>B	*	*	*	*	*>B	*	*	*	*	*>B	*	*	*	*
*xywh-#9:653,950,1989,453	*	*	*	*	*	*	*	*	*	*	*	*	*	*	*	*	*	*	*
!	!	!	!	!	!LO:TX:t=P:problem:brak pauʒy 1r	!	!	!	!	!	!	!	!	!	!	!	!	!	!
1F	.	[Prze-	.	.	1ryy	.	.	.	.	2c/	Prʒe-	Prze-	.	.	1a	Prʒe-	Prze-	.	.
.	.	.	.	.	.	.	.	.	.	1f	-to	-to	.	.	.	.	.	.	.
2F\	.	-to	.	.	1c\	Prʒe-	Prze-	.	.	.	.	.	.	.	2a/	-to	-to	.	.
=11-	=11-	=11-	=11-	=11-	=11-	=11-	=11-	=11-	=11-	=11-	=11-	=11-	=11-	=11-	=11-	=11-	=11-	=11-	=11-
4C/	.	o-	.	.	.	.	.	.	.	1e	o-	o-	.	.	4g/	o-	o-	.	.
4D/	.	.	.	.	.	.	.	.	.	.	.	.	.	.	4f/	.	.	.	.
4E/	.	.	.	.	2c\	-to	-to	.	.	.	.	.	.	.	4g/	.	.	.	.
4F\	.	.	.	.	.	.	.	.	.	.	.	.	.	.	4a/	.	.	.	.
1G	.	-puść	.	.	4B-/	o-	o-	.	.	1d	-pusć	-puść	.	.	1b-	-pusć	-puść	.	.
.	.	.	.	.	4A/	.	.	.	.	.	.	.	.	.	.	.	.	.	.
*	*	*	*	*	*custos:B	*	*	*	*	*	*	*	*	*	*	*	*	*	*
*	*	*	*	*	*xywh-#7:558,2559,2121,610	*	*	*	*	*	*	*	*	*	*	*	*	*	*
!	!	!	!	!	!LO:LB:g=original	!	!	!	!	!	!	!	!	!	!	!	!	!	!
.	.	.	.	.	4B-/	.	.	.	.	.	.	.	.	.	.	.	.	.	.
.	.	.	.	.	4c\	.	.	.	.	.	.	.	.	.	.	.	.	.	.
*	*	*	*	*	*	*	*	*	*	*	*	*	*	*	*custos:a	*	*	*	*
!	!	!	!	!	!	!	!	!	!	!	!	!	!	!	!LO:LB:g=original	!	!	!	!
=12-	=12-	=12-	=12-	=12-	=12-	=12-	=12-	=12-	=12-	=12-	=12-	=12-	=12-	=12-	=12-	=12-	=12-	=12-	=12-
*	*	*	*	*	*	*	*	*	*	*	*	*	*	*	*xywh-#6:587,2660,2083,618	*	*	*	*
!	!	!	!	!	!	!	!	!	!	!LO:TX:t=P:problem:dźwięk dopisany innym atramentem	!	!	!	!	!	!	!	!	!
1D	.	to	.	.	1d	-pusć	-puść	.	.	1f	to/	to	.	.	1a	tho/	to	.	.
2r	.	.	.	.	1c	tho	to	.	.	2r	.	.	.	.	2r	.	.	.	.
2F\	.	A	.	.	.	.	.	.	.	2f\	A	A	.	.	2a/	A	A	.	.
=13-	=13-	=13-	=13-	=13-	=13-	=13-	=13-	=13-	=13-	=13-	=13-	=13-	=13-	=13-	=13-	=13-	=13-	=13-	=13-
!	!	!	!	!	!	!	!	!	!	!LO:TX:t=P:problem:dźwięk 2e\ dopisany przed nutą	!	!	!	!	!	!	!	!	!
2E/	.	już	.	.	2r	.	.	.	.	2c/	iuſʒ	już	.	.	2g/	iuż	już	.	.
*	*	*	*	*	*	*	*	*	*	*custos:e	*	*	*	*	*	*	*	*	*
*	*	*	*	*	*	*	*	*	*	*xywh-#8:617,1774,2029,561	*	*	*	*	*	*	*	*	*
!	!	!	!	!	!	!	!	!	!	!LO:LB:g=original	!	!	!	!	!	!	!	!	!
!	!	!	!	!	!	!	!	!	!	!LO:TX:t=P:problem:dźwięk skreślony innym atramentem	!	!	!	!	!	!	!	!	!
2C/	.	.	.	.	2c\	A	A	.	.	2e\	prʒe-	.	.	.	2e/	.	.	.	.
1D	.	prze-	.	.	2B-/	iuſʒ	już	.	.	1d	-ſtan/	prze-	.	.	1f	prʒe-	prze-	.	.
.	.	.	.	.	2A/	prźeſ-	.	.	.	.	.	.	.	.	.	.	.	.	.
=14-	=14-	=14-	=14-	=14-	=14-	=14-	=14-	=14-	=14-	=14-	=14-	=14-	=14-	=14-	=14-	=14-	=14-	=14-	=14-
2D/	.	-stań	.	.	4A/	-tan	prze-	.	.	1d	A	-stań	.	.	4f/	-ſtan/	-stań	.	.
.	.	.	.	.	4G/	.	.	.	.	.	.	.	.	.	4e/	.	.	.	.
*custos:D	*	*	*	*	*	*	*	*	*	*	*	*	*	*	*	*	*	*	*
*xywh-#9:641,1381,2001,436	*	*	*	*	*	*	*	*	*	*	*	*	*	*	*	*	*	*	*
!LO:LB:g=original	!	!	!	!	!	!	!	!	!	!	!	!	!	!	!	!	!	!	!
2D/	.	A	.	.	4A/	.	.	.	.	.	.	.	.	.	4f/	.	.	.	.
.	.	.	.	.	4B-/	.	.	.	.	.	.	.	.	.	4g/	.	.	.	.
2C/	.	już	.	.	2c\	A	-stań	.	.	2e\	iuſʒ	A	.	.	2a/	.	.	.	.
1BB-/	.	.	.	.	1d\	iuſʒ	A	.	.	1f\	.	już	.	.	1b-\	A	A	.	.
=15-	=15-	=15-	=15-	=15-	=15-	=15-	=15-	=15-	=15-	=15-	=15-	=15-	=15-	=15-	=15-	=15-	=15-	=15-	=15-
.	.	.	.	.	.	.	.	.	.	.	.	.	.	.	.	.	.	.	.
*	*	*	*	*	*custos:c	*	*	*	*	*	*	*	*	*	*	*	*	*	*
!	!	!	!	!	!LO:MO:mod=*null:null	!	!	!	!	!	!	!	!	!	!	!	!	!	!
*	*	*	*	*	*clefC3	*	*	*	*	*	*	*	*	*	*	*	*	*	*
*	*	*	*	*	*xywh-#7:2732,324,2165,799	*	*	*	*	*	*	*	*	*	*	*	*	*	*
!	!	!	!	!	!LO:LB:g=original	!	!	!	!	!	!	!	!	!	!	!	!	!	!
2C/	.	.	.	.	2c/	.	już	.	.	2e\	.	.	.	.	1a	iuż,	już	.	.
2D/	.	prze-	.	.	1B-	prʒeſ-	prze-	.	.	1d	prʒe-	prze-	.	.	.	.	.	.	.
*	*	*	*	*	*	*	*	*	*	*	*	*	*	*	*custos:g	*	*	*	*
*	*	*	*	*	*	*	*	*	*	*	*	*	*	*	*xywh-#6:2770,298,2201,817	*	*	*	*
!	!	!	!	!	!	!	!	!	!	!	!	!	!	!	!LO:PB:g=original	!	!	!	!
2GG/	.	.	.	.	.	.	.	.	.	.	.	.	.	.	2g/	prʒe-	prze-	.	.
=16-	=16-	=16-	=16-	=16-	=16-	=16-	=16-	=16-	=16-	=16-	=16-	=16-	=16-	=16-	=16-	=16-	=16-	=16-	=16-
1D	.	-stań	.	.	1A	-tan	-stań	.	.	1d	-ſtan/	-stań	.	.	1a	-ſtan/	-stań	.	.
2r	.	.	.	.	2r	.	.	.	.	2r	.	.	.	.	2r	.	.	.	.
2D/	.	u-	.	.	2A/	u-	u-	.	.	2d/	u-	u-	.	.	2f/	u-	u-	.	.
=17-	=17-	=17-	=17-	=17-	=17-	=17-	=17-	=17-	=17-	=17-	=17-	=17-	=17-	=17-	=17-	=17-	=17-	=17-	=17-
2D/	.	-ni-	.	.	2A/	-ni-	-ni-	.	.	2d/	-ni-	-ni-	.	.	2f/	-ni-	-ni-	.	.
2D/	.	-żyw-	.	.	2A/	-żyw-	-żyw-	.	.	2d/	-żyw-	-żyw-	.	.	2f/	-żyw-	-żyw-	.	.
2BB-/	.	szy	.	.	2d/	-ſʒy	szy	.	.	1f	-ſʒy	szy	.	.	2b-\	-ſʒy	szy	.	.
2BB-/	.	się	.	.	2d/	ſie	się	.	.	.	.	.	.	.	2b-\	ſie	się	.	.
*	*	*	*	*	*	*	*	*	*	*custos:f	*	*	*	*	*	*	*	*	*
!	!	!	!	!	!	!	!	!	!	!LO:LB:g=original	!	!	!	!	!	!	!	!	!
=18-	=18-	=18-	=18-	=18-	=18-	=18-	=18-	=18-	=18-	=18-	=18-	=18-	=18-	=18-	=18-	=18-	=18-	=18-	=18-
*	*	*	*	*	*	*	*	*	*	*xywh-#8:606,2286,2052,572	*	*	*	*	*	*	*	*	*
1F	.	u-	.	.	2c/	u-	u-	.	.	2f\	ſie	się	.	.	2a/	u-	u-	.	.
.	.	.	.	.	2c/	-prʒei-	-przej-	.	.	2f\	u-	u-	.	.	2a/	-prʒei-	-przej-	.	.
*custos:G	*	*	*	*	*	*	*	*	*	*	*	*	*	*	*	*	*	*	*
*xywh-#9:647,1795,1995,425	*	*	*	*	*	*	*	*	*	*	*	*	*	*	*	*	*	*	*
!LO:LB:g=original	!	!	!	!	!	!	!	!	!	!	!	!	!	!	!	!	!	!	!
2G\	.	.	.	.	2B-/	-mie	-mie	.	.	2e\	-prʒei-	-przej-	.	.	2g/	-mie	-mie	.	.
!LO:MO:mod=[2F	!	!	!	!	!LO:MO:mod=[2c	!	!	!	!	!LO:MO:mod=[2f	!	!	!	!	!LO:MO:mod=[2a	!	!	!	!
1F\	.	-przej-	.	.	1c\	wſʒy-	wszyt-	.	.	2.f\	-mie	-mie	.	.	1a\	wſʒyt-	wszyt-	.	.
=19-	=19-	=19-	=19-	=19-	=19-	=19-	=19-	=19-	=19-	=19-	=19-	=19-	=19-	=19-	=19-	=19-	=19-	=19-	=19-
!LO:MO:null:mod=2F]	!	!	!	!	!LO:MO:null:mod=2c]	!	!	!	!	!LO:MO:null:mod=4f]	!	!	!	!	!LO:MO:null:mod=2a]	!	!	!	!
.	.	.	.	.	.	.	.	.	.	.	.	.	.	.	.	.	.	.	.
.	.	.	.	.	.	.	.	.	.	4e\	.	.	.	.	.	.	.	.	.
*	*	*	*	*	*custos:B	*	*	*	*	*	*	*	*	*	*	*	*	*	*
*	*	*	*	*	*xywh-#7:2771,1111,2070,625	*	*	*	*	*	*	*	*	*	*	*	*	*	*
!	!	!	!	!	!LO:LB:g=original	!	!	!	!	!	!	!	!	!	!	!	!	!	!
2G\	.	-mie	.	.	2B-/	-tko	-ko	.	.	4d/	.	.	.	.	1g	-ko	-ko	.	.
.	.	.	.	.	.	.	.	.	.	4c/	.	.	.	.	.	.	.	.	.
2D/	.	wszyt-	.	.	1A	włoſſ	włóż	.	.	2d/	wſʒyt-	wszyt-	.	.	.	.	.	.	.
*	*	*	*	*	*	*	*	*	*	*	*	*	*	*	*custos:f	*	*	*	*
*	*	*	*	*	*	*	*	*	*	*	*	*	*	*	*xywh-#6:2798,1106,2045,628	*	*	*	*
!	!	!	!	!	!	!	!	!	!	!	!	!	!	!	!LO:LB:g=original	!	!	!	!
2F\	.	.	.	.	.	.	.	.	.	2A/	-ko	-ko	.	.	2f/	włoż	.	.	.
=20-	=20-	=20-	=20-	=20-	=20-	=20-	=20-	=20-	=20-	=20-	=20-	=20-	=20-	=20-	=20-	=20-	=20-	=20-	=20-
2E\	.	-ko	.	.	1G	nan	nań	.	.	2B-/	włoſʒ	włóż	.	.	2g\	.	.	.	.
2C/	.	.	.	.	.	.	.	.	.	1c	nan/	nań	.	.	2e/	.	.	.	.
1D	.	włóż	.	.	2r	.	.	.	.	.	.	.	.	.	1f	.	włóż	.	.
.	.	.	.	.	2F/	Boć	boć	.	.	2B-/	boć	boć	.	.	.	.	.	.	.
*	*	*	*	*	*	*	*	*	*	*custos:c	*	*	*	*	*	*	*	*	*
!	!	!	!	!	!	!	!	!	!	!LO:LB:g=original	!	!	!	!	!	!	!	!	!
=21-	=21-	=21-	=21-	=21-	=21-	=21-	=21-	=21-	=21-	=21-	=21-	=21-	=21-	=21-	=21-	=21-	=21-	=21-	=21-
*	*	*	*	*	*	*	*	*	*	*xywh-#8:589,2813,2103,555	*	*	*	*	*	*	*	*	*
1C	.	nań	.	.	2G/	mu	mu	.	.	2c/	mu	mu	.	.	1e	nan/	nań	.	.
.	.	.	.	.	2A/	nie-	nie	.	.	2c/	nie-	nie	.	.	.	.	.	.	.
2r	.	.	.	.	2B-/	-máſʒ	masz	.	.	2d/	-máſʒ	masz	.	.	0r	.	.	.	.
2C/	.	boć	.	.	2c/	ćięż-	cięż-	.	.	2e\	ćięż-	cięż-	.	.	.	.	.	.	.
=22-	=22-	=22-	=22-	=22-	=22-	=22-	=22-	=22-	=22-	=22-	=22-	=22-	=22-	=22-	=22-	=22-	=22-	=22-	=22-
2.D/	.	mu	.	.	1A	-ſʒe-	-sze-	.	.	2f\	-ſʒe-	-sze-	.	.	.	.	.	.	.
.	.	.	.	.	.	.	.	.	.	4e\	.	.	.	.	.	.	.	.	.
4E/	.	.	.	.	.	.	.	.	.	4d\	.	.	.	.	.	.	.	.	.
2F\	.	.	.	.	2A/	-go	-go	.	.	2c/	-go/	-go	.	.	2r	.	.	.	.
*custos:D	*	*	*	*	*	*	*	*	*	*	*	*	*	*	*	*	*	*	*
*xywh-#9:636,2203,1984,442	*	*	*	*	*	*	*	*	*	*	*	*	*	*	*	*	*	*	*
!LO:LB:g=original	!	!	!	!	!	!	!	!	!	!	!	!	!	!	!	!	!	!	!
2D/	.	.	.	.	2A/	ied-	jed-	.	.	1d\	ied-	jed-	.	.	2f/	boć	boć	.	.
=23-	=23-	=23-	=23-	=23-	=23-	=23-	=23-	=23-	=23-	=23-	=23-	=23-	=23-	=23-	=23-	=23-	=23-	=23-	=23-
2G\	.	nie	.	.	2B-/	-no	-no	.	.	.	.	.	.	.	2g/	mu	mu	.	.
*	*	*	*	*	*custos:c	*	*	*	*	*	*	*	*	*	*	*	*	*	*
*	*	*	*	*	*xywh-#7:2762,1728,2086,562	*	*	*	*	*	*	*	*	*	*	*	*	*	*
!	!	!	!	!	!LO:LB:g=original	!	!	!	!	!	!	!	!	!	!	!	!	!	!
2F\	.	masz	.	.	2c/	gdy	gdy	.	.	1f	.	-no	.	.	2a/	nie-	nie	.	.
4BB-/	.	cięż-	.	.	1d	ſie	się	.	.	.	.	.	.	.	2b-\	-máſʒ	masz	.	.
4C/	.	.	.	.	.	.	.	.	.	.	.	.	.	.	.	.	.	.	.
4D/	.	.	.	.	.	.	.	.	.	2f\	-no	gdy	.	.	2b-\	ćież-	cięż-	.	.
4E/	.	.	.	.	.	.	.	.	.	.	.	.	.	.	.	.	.	.	.
=24-	=24-	=24-	=24-	=24-	=24-	=24-	=24-	=24-	=24-	=24-	=24-	=24-	=24-	=24-	=24-	=24-	=24-	=24-	=24-
2F\	.	.	.	.	2.c/	kto	kto	.	.	2f\	gdy	się	.	.	2a/	-ſʒe-	-sze-	.	.
*	*	*	*	*	*	*	*	*	*	*	*	*	*	*	*custos:g	*	*	*	*
*	*	*	*	*	*	*	*	*	*	*	*	*	*	*	*xywh-#6:2785,1694,2083,633	*	*	*	*
!	!	!	!	!	!	!	!	!	!	!	!	!	!	!	!LO:LB:g=original	!	!	!	!
2C/	.	.	.	.	.	.	.	.	.	2e\	ſie	.	.	.	2g/	-go	-go	.	.
.	.	.	.	.	4B-/	.	.	.	.	.	.	.	.	.	.	.	.	.	.
*	*	*	*	*	*	*	*	*	*	*custos:d	*	*	*	*	*	*	*	*	*
*	*	*	*	*	*	*	*	*	*	*xywh-#8:2749,312,2216,725	*	*	*	*	*	*	*	*	*
!	!	!	!	!	!	!	!	!	!	!LO:PB:g=original	!	!	!	!	!	!	!	!	!
2D/	.	sze-	.	.	2A/	.	.	.	.	1d	kto	kto	.	.	2a/	.	.	.	.
2GG/	.	-go	.	.	2.B-/	ſprʒe-	sprze-	.	.	.	.	.	.	.	1g\	ied-	jed-	.	.
=25-	=25-	=25-	=25-	=25-	=25-	=25-	=25-	=25-	=25-	=25-	=25-	=25-	=25-	=25-	=25-	=25-	=25-	=25-	=25-
1D	.	jed-	.	.	.	.	.	.	.	2d/	.	sprze-	.	.	.	.	.	.	.
.	.	.	.	.	4A/	.	.	.	.	.	.	.	.	.	.	.	.	.	.
.	.	.	.	.	4G/	.	.	.	.	2B-/	.	.	.	.	1f	-no	-no	.	.
.	.	.	.	.	4F/	.	.	.	.	.	.	.	.	.	.	.	.	.	.
1C	.	.	.	.	1G	-ći-	-ci-	.	.	1c	ſprʒe-	.	.	.	.	.	.	.	.
.	.	.	.	.	.	.	.	.	.	.	.	.	.	.	2e/	.	gdy	.	.
=26-	=26-	=26-	=26-	=26-	=26-	=26-	=26-	=26-	=26-	=26-	=26-	=26-	=26-	=26-	=26-	=26-	=26-	=26-	=26-
1FF	.	-no	.	.	1.F	.	.	.	.	2.A/	-ći-	-ci-	.	.	2f/	gdy	się	.	.
.	.	.	.	.	.	.	.	.	.	.	.	.	.	.	2.a\	ſie	kto	.	.
.	.	.	.	.	.	.	.	.	.	4B-/	.	.	.	.	.	.	.	.	.
0r	.	.	.	.	.	.	.	.	.	1c	-wia	-wia	.	.	.	.	.	.	.
.	.	.	.	.	.	.	.	.	.	.	.	.	.	.	4b-\	.	.	.	.
!	!	!	!	!	!LO:LB:g=original	!	!	!	!	!	!	!	!	!	!	!	!	!	!
!	!	!	!	!	!LO:TX:t=P:problem=prawdopodobnie pominięte powtórʒenie [J.I.]	!	!	!	!	!	!	!	!	!	!	!	!	!	!
.	.	.	.	.	2F/yy	-wi	-wia	.	.	.	.	.	.	.	4cc\	kto	.	.	.
.	.	.	.	.	.	.	.	.	.	.	.	.	.	.	4a\	.	.	.	.
=27-	=27-	=27-	=27-	=27-	=27-	=27-	=27-	=27-	=27-	=27-	=27-	=27-	=27-	=27-	=27-	=27-	=27-	=27-	=27-
.	.	.	.	.	2G/yy	wo-	wo-	.	.	2r	.	.	.	.	2b-\	ſprʒe-	sprze-	.	.
.	.	.	.	.	2A/yy	.	.	.	.	2c/	.	wo-	.	.	2a\	-ći-	-ci-	.	.
2r	.	.	.	.	2B-/yy	.	.	.	.	2d/	.	.	.	.	1g	-wia	-wia	.	.
*custos:C	*	*	*	*	*	*	*	*	*	*	*	*	*	*	*	*	*	*	*
*xywh-#9:587,2643,2069,527	*	*	*	*	*	*	*	*	*	*	*	*	*	*	*	*	*	*	*
!LO:LB:g=original	!	!	!	!	!	!	!	!	!	!	!	!	!	!	!	!	!	!	!
2C/	.	gdy	.	.	2c/yy	.	.	.	.	2e\	.	.	.	.	.	.	.	.	.
*	*	*	*	*	*	*	*	*	*	*	*	*	*	*	*custos:f	*	*	*	*
!	!	!	!	!	!	!	!	!	!	!	!	!	!	!	!LO:LB:g=original	!	!	!	!
=28-	=28-	=28-	=28-	=28-	=28-	=28-	=28-	=28-	=28-	=28-	=28-	=28-	=28-	=28-	=28-	=28-	=28-	=28-	=28-
*	*	*	*	*	*	*	*	*	*	*	*	*	*	*	*xywh-#6:2785,2295,2097,628	*	*	*	*
2.D/	.	się	.	.	1Ayy	.	.	.	.	2f\	.	.	.	.	1r	.	.	.	.
*	*	*	*	*	*	*	*	*	*	*custos:e	*	*	*	*	*	*	*	*	*
*	*	*	*	*	*	*	*	*	*	*xywh-#8:2794,1009,2086,549	*	*	*	*	*	*	*	*	*
!	!	!	!	!	!	!	!	!	!	!LO:LB:g=original	!	!	!	!	!	!	!	!	!
.	.	.	.	.	.	.	.	.	.	4e\	wo-	.	.	.	.	.	.	.	.
4E/	.	.	.	.	.	.	.	.	.	4d/	.	.	.	.	.	.	.	.	.
2F\	.	.	.	.	2A/yy	-lei	-lej	.	.	2c/	.	.	.	.	2r	.	.	.	.
2D/	.	kto	.	.	2A/yy	ie-	Je-	.	.	1d\	-lei	-lej	.	.	2f/	wo-	wo-	.	.
=29-	=29-	=29-	=29-	=29-	=29-	=29-	=29-	=29-	=29-	=29-	=29-	=29-	=29-	=29-	=29-	=29-	=29-	=29-	=29-
2G\	.	sprze-	.	.	2B-/yy	.	.	.	.	.	.	.	.	.	2g/	-lei	-lej	.	.
*	*	*	*	*	*ycustos:c	*	*	*	*	*	*	*	*	*	*	*	*	*	*
!	!	!	!	!	!LO:LB:g=original	!	!	!	!	!	!	!	!	!	!	!	!	!	!
2F\	.	.	.	.	2c/yy	.	.	.	.	1f	ie-	Je-	.	.	2a/	ie-	Je-	.	.
4BB-/	.	-ci-	.	.	1dyy	.	.	.	.	.	.	.	.	.	2b-\	-go.	-go	.	.
4C/	.	.	.	.	.	.	.	.	.	.	.	.	.	.	.	.	.	.	.
4D/	.	.	.	.	.	.	.	.	.	2f\	-go.	-go	.	.	2b-\	ſprʒe-	sprze-	.	.
4E/	.	.	.	.	.	.	.	.	.	.	.	.	.	.	.	.	.	.	.
=30-	=30-	=30-	=30-	=30-	=30-	=30-	=30-	=30-	=30-	=30-	=30-	=30-	=30-	=30-	=30-	=30-	=30-	=30-	=30-
2F\	.	.	.	.	2.c/yy	.	.	.	.	2f\	.	[wo-	.	.	2a/	-ći-	-ci-	.	.
2C/	.	-wia	.	.	.	.	.	.	.	2e\	.	.	.	.	2g/	-wia	-wia	.	.
.	.	.	.	.	4B-/yy	.	.	.	.	.	.	.	.	.	.	.	.	.	.
2D/	.	wo-	.	.	2A/yy	.	.	.	.	1d	.	.	.	.	2f/	wo-	wo-	.	.
2GG/	.	-lej	.	.	2.B-/yy	.	.	.	.	.	.	.	.	.	1g\	-lei	-lej	.	.
=31-	=31-	=31-	=31-	=31-	=31-	=31-	=31-	=31-	=31-	=31-	=31-	=31-	=31-	=31-	=31-	=31-	=31-	=31-	=31-
1D	.	Je-	.	.	.	.	.	.	.	2d/	.	-lej	.	.	.	.	.	.	.
.	.	.	.	.	4A/yy	.	.	.	.	.	.	.	.	.	.	.	.	.	.
.	.	.	.	.	4G/yy	.	.	.	.	2B-/	.	.	.	.	1f	ie-	Je-	.	.
.	.	.	.	.	4F/yy	.	.	.	.	.	.	.	.	.	.	.	.	.	.
1C	.	.	.	.	1Gyy	.	.	.	.	1c	.	Je-	.	.	.	.	.	.	.
.	.	.	.	.	.	.	.	.	.	.	.	.	.	.	2e/	.	.	.	.
=32-	=32-	=32-	=32-	=32-	=32-	=32-	=32-	=32-	=32-	=32-	=32-	=32-	=32-	=32-	=32-	=32-	=32-	=32-	=32-
0FFl	.	-go.]	.	.	0Flyy	-go.	-go.	.	.	0cl/	.	-go.]	.	.	0fl	-go.	-go.	.	.
==	==	==	==	==	==	==	==	==	==	==	==	==	==	==	==	==	==	==	==
*-	*-	*-	*-	*-	*-	*-	*-	*-	*-	*-	*-	*-	*-	*-	*-	*-	*-	*-	*-
!!!system-decoration: [(*)]
!!LO:MO:ori
!!!RDF**kern: l = terminal long
!!LO:MO:end
!!!RDF**kern: @ = marked note, color=#aaa
!!!filter-modern: sic -sq | shed -e "s/TX(.*):t=P:/tx$1:t=P:/LG" | shed -e "s/yy//" | shed -ke "s/\(y(?!y)/(/" | shed -k -e "s/LO:N:vis/LO:n:vis:/L" | shed -e "s/^(\d+[\/\\]right)/$1yy/I;s/^(\d+[\/\\]left)/$1yy/I" | shed -e "s/-//B" | shed -e "s/^custos:/Xcustos:/I" | shed -k -e "s/LO:N:acc/LO:n:acc:/L" | autostem -r | tie -s | humtr -p | modori -m
!!!ENC: Arkadiusz Malec
!!!END: 2022-05-02
!!!ENC: Andrzej Kubiczek
!!!END: 2022-05-09
!!!ENC-modern: Andrzej Borzym
!!!END-modern: 2022-07-22
!!!ENC-iiif: Emilia Ziętek
!!!END-iiif: 2022-09-02
!!!YEC: Copyright 2022 Narodowy Instytut Fryderyka Chopina (https://polishscores.org)
!!!YEM: License CC-BY-4.0 (https://creativecommons.org/licenses/by/4.0)
